X: 202135
T: Top of the Hill
C: Joe Liddy
Z: BB
S: "The Leitrim Fiddler" (Dublin 1981)
L: 1/8
M: 4/4
R: reel
Q: 1/4 = 180
K: Ador
ed | c2 BG AGED | EAAG A2 dc | e2 dB cBAG | EGGF G2 ed |
cABG AGED | EGAB cdeg | a2 ge d2 cd | eABG A2 :|
cd | eaag egcd | ecgc edcd | eaag egec | dged cA A2 |
[1 a2 ag edcB | c2 (3dcB cdeg | a2 ge d2 cd | eABG A2 :|
[2 c2 cd ecgc | aced efge | a2 ge d2 cd | eABG A4 ||
%%%%%%%%%%%%%%%%%%%%%%
